Breeze Round Light/actions/24/journal-new.svg

<svg xmlns="http://www.w3.org/2000/svg" viewBox="0 0 24 24" width="24" height="24">
  <defs id="defs3051">
    <style type="text/css" id="current-color-scheme">.ColorScheme-Text {color:#fcfcfc;}</style>
  </defs>
  <g transform="translate(1,1)">
    <path style="fill:currentColor;fill-opacity:1;stroke:none" d="M 7,3 C 5,3 5,5 5,5 H 3 v 3 h 2 v 6 H 3 v 3 h 2 c 0,0 0,2 2,2 2,0 5,0 5,0 V 18 H 9 V 4 h 8 c 0,0 1,0 1,1 0,1 0,7 0,7 h 1 C 19,12 19,7 19,5 19,3 17,3 17,3 17,3 9,3 7,3 Z M 6,5 C 6,5 6,4 7,4 8,4 8,4 8,4 V 18 C 8,18 7.8884184,18 6.9442092,18 6,18 6,17 6,17 Z m 10,9 v 2 h -2 v 1 h 2 v 2 h 1 v -2 h 2 v -1 h -2 v -2 z" class="ColorScheme-Text"/>
  </g>
</svg>

<svg xmlns="http://www.w3.org/2000/svg" viewBox="0 0 24 24">
  <defs id="defs3051">
    <style type="text/css" id="current-color-scheme">
      .ColorScheme-Text {
        color:#232629;
      }
      </style>
  </defs><g transform="translate(1,1)">
 <path 
     style="fill:currentColor;fill-opacity:1;stroke:none" 
     d="M 5 3 L 5 4 L 5 5 L 3 5 L 3 8 L 5 8 L 5 14 L 3 14 L 3 17 L 5 17 L 5 19 L 6 19 L 12 19 L 12 18 L 9 18 L 9 4 L 18 4 L 18 12 L 19 12 L 19 4 L 19 3 L 5 3 z M 6 4 L 8 4 L 8 18 L 6 18 L 6 4 z M 16 14 L 16 16 L 14 16 L 14 17 L 16 17 L 16 19 L 17 19 L 17 17 L 19 17 L 19 16 L 17 16 L 17 14 L 16 14 z "
     class="ColorScheme-Text"
     />
</g></svg>
